brandFactory_export/2.Regular/Progreso _2Regular.svg

<?xml version="1.0" encoding="UTF-8"?>
<svg width="24px" height="24px" viewBox="0 0 24 24" version="1.1" xmlns="http://www.w3.org/2000/svg" xmlns:xlink="http://www.w3.org/1999/xlink">
    <title>2.Regular/Progreso _2Regular</title>
    <g id="Symbols" stroke="none" stroke-width="1" fill="none" fill-rule="evenodd">
        <g id="2.Regular/Progreso-_2Regular" fill="#5CB615" fill-rule="nonzero">
            <path d="M23.6235294,4.71932773 L23.6235294,9.01176471 C23.6235294,9.40504202 23.287395,9.73109244 22.8773109,9.73109244 C22.4739496,9.73781513 22.1378151,9.41512605 22.1310924,9.01176471 L22.1310924,6.82352941 L15.5663866,15.8722689 C15.3613445,16.1579832 14.9848739,16.2621849 14.6621849,16.1210084 L6.02352941,12.4470588 L1.39159664,20.3697479 C1.25714286,20.5983193 1.01176471,20.7361345 0.746218487,20.7328332 C0.618487395,20.7328332 0.494117647,20.702521 0.376470588,20.6453782 C0.0302521008,20.4605042 -0.100840336,20.0302521 0.0840336134,19.6840336 C0.0907563025,19.6739496 0.0941176471,19.6638655 0.100840336,19.6571429 L5.05882353,11.1798319 C5.25378151,10.8537815 5.65714286,10.7226891 6.00336134,10.8739496 L14.6991597,14.5680672 L21.3277311,5.44537815 L18.5042017,5.44537815 C18.1008403,5.45210084 17.7647059,5.12941176 17.7579832,4.72605042 L17.7579832,4.72268908 C17.7579832,4.31932773 18.087395,4 18.5042017,4 L22.8773109,4 C23.2840336,4 23.6235294,4.31596639 23.6235294,4.71932773" id="Path"></path>
        </g>
    </g>
</svg>

<svg width="24" height="24" viewBox="0 0 24 24" xmlns="http://www.w3.org/2000/svg"><path d="M23.624 4.72v4.292c0 .393-.337.72-.747.72a.735.735 0 01-.746-.72V6.824l-6.565 9.048a.745.745 0 01-.904.249l-8.638-3.674-4.632 7.923a.736.736 0 01-.646.363.842.842 0 01-.37-.088.71.71 0 01-.292-.961c.007-.01.01-.02.017-.027l4.958-8.477a.75.75 0 01.944-.306l8.696 3.694 6.629-9.123h-2.824a.735.735 0 01-.746-.719v-.003A.73.73 0 0118.504 4h4.373c.407 0 .747.316.747.72" fill="#5CB615" fill-rule="nonzero"/></svg>
